X: 21722
T: THE BEDDING OF THE BRIDE -- Reel
R: reel
B: K\"ohler's Violin Repository, v.2, 1885 p.172 #2
F: http://www.archive.org/details/klersviolinrepos02rugg
Z: 2012 John Chambers <jc:trillian.mit.edu>
M: C|
L: 1/8
K: D
uF |\
DAAG FDAF | DAAG E=CCE | DAAF GABG | AB=cG ECCg |\
fddA FDD=f | e=ccG ECCg | fddA FAdB | =cBcG ECC |]
[| uf |\
d2(da) fdad | Adda (e=c)ge | d2(da) fdad | AB=cG ECCg |\
fdAd FDD=f | e=cGc ECCg | fdcd AdFd | E=cGc ECC "^D.C."|]

%%sep 2 1 500

